X:1
T:Nordisches Lied
T:Nordisches Lied
T:Musikgestaltung für Solo-Cello
T:Robert Schumann (1810 - 1856) organisiert von Andrew Bolt (b. 1997) 
T:* Niels W. Gade (1817 - 1890)
T:R. Schumann
C:R. Schumann
Z:R. Schumann
%%score ( 1 2 3 )
L:1/8
Q:1/4=80
M:4/4
K:F
V:1 bass nm="Violoncello" snm="Vc."
V:2 bass 
V:3 bass 
V:1
"^Im Volkston (c.)"!p! G,2 A,2 D,3"^*" E, | F,2 G,2 (F,2 E,2) | C2 D2 G,3 A, | B,2 G,2 A,4 | %4
w: G A D E||||
 [G,,G,]2 [^C,,E,A,]2 D,3 [G,,^C,E,] | [D,F,]2 [D,G,]2 (F,2 [_B,,E,]2) | %6
w: ||
 [A,,F,C]2 [D,F,B,D]2 [C,,G,,E,G,]3 [C,,^F,,^F,A,] | [G,,D,B,]2 [C,,G,,B,,E,]2 [C,,A,,F,]4 |: %8
w: ||
!<(! [G,,D,B,]2 [^C,,A,,E,A,]2!<)!!f! [D,,A,,F,F]3 [C,,A,,E,E] | %9
w: |
 [D,,A,,F,D]2{/A,} A,2{=B,A,^G,A,} C2 [D,B,]2 | %10
w: |
!<(! [C,,E,C]2!<)! [D,,A,,F,D]2 [D,,=B,,^G,]3 [C,A,] |!>(! [D,,=B,,F,=B,]2 [E,,B,,^G,]2 A,4!>)! | %12
w: ||
!p! [C,,G,,_E,G,]2 [^F,,C,E,A,]2 [G,,D,]3 [E,,B,,=E,] | [D,,A,,F,]2 [D,,=B,,G,]2 (F,2 E,2) | %14
w: ||
 [A,,F,C]2 [D,F,B,D]2 [C,,G,,E,G,]3 [C,,^F,,^F,A,] | [G,,D,B,]2 [B,,D,G,]2 [^C,,A,,E,A,]4 | %16
w: ||
!pp! G,2 A,2 D,3 E, | F,2 G,2 (F,2 E,2) | C2 D2 G,3 A, | B,2 E,2 F,4 :| %20
w: ||||
V:2
 x8 | x8 | x8 | x8 | z2 z2 A,,4- | A,,2 =B,,2 [G,,C,]4 | x8 | x8 |: x8 | %9
 z2 [^F,,^F,]2 [G,,=G,]2 [^G,,^G,]2 | [A,,A,]2 x2 E,,2 F,,2 | z4 A,,3 =B,, | z2 z2 C,2 B,,^C,, | %13
 z4 [G,,C,]3 _B,, | x8 | x8 | x8 | x8 | x8 | x8 :| %20
V:3
 x8 | x8 | x8 | x8 | x4 F,,2 E,,2 | x8 | x8 | x8 |: x8 | x2 A,,4 B,,2 | x8 | x8 | x8 | x8 | x8 | %15
 x8 | x8 | x8 | x8 | x8 :| %20

